usr/share/icons/biglinux-icons-material-dark/symbolic/actions/autocorrection.svg

<svg xmlns="http://www.w3.org/2000/svg" viewBox="0 0 16 16">
  <defs id="defs3051">
    <style type="text/css" id="current-color-scheme">
      .ColorScheme-Text {
        color:#dedede;
      }
      </style>
  </defs>
 <path style="fill:currentColor;fill-opacity:1;stroke:none" 
     d="M 3.5 2 L 2.96875 2.96875 L 2 3.5 L 2.96875 4.03125 L 3.5 5 L 4.03125 4.03125 L 5 3.5 L 4.03125 2.96875 L 3.5 2 z M 11.125 2 L 7.625 5.5 L 7.125 6 L 5.125 8 L 3.625 9.5 L 3.125 10 L 2 11.125 L 4.875 14 L 6 12.875 L 6.5 12.375 L 10 8.875 L 10.5 8.375 L 14 4.875 L 11.125 2 z M 11.125 3.4375 L 12.5625 4.875 L 9.78125 7.65625 L 8.34375 6.21875 L 11.125 3.4375 z "
     class="ColorScheme-Text"
     />
</svg>

<svg xmlns="http://www.w3.org/2000/svg" viewBox="0 0 16 16">
<defs id="defs3051">
<style id="current-color-scheme" type="text/css">
.ColorScheme-Contrast{color:#dedede}
</style>
</defs>
<path d="m3.5 2-.531.969L2 3.5l.969.531L3.5 5l.531-.969L5 3.5l-.969-.531zm7.625 0-3.5 3.5-.5.5-2 2-1.5 1.5-.5.5L2 11.125 4.875 14 6 12.875l.5-.5 3.5-3.5.5-.5 3.5-3.5zm0 1.438 1.438 1.437L9.78 7.656 8.344 6.22z" class="ColorScheme-Contrast" style="fill:currentColor;fill-opacity:1;stroke:none"/>
</svg>
